X:1
T:Title
%%score { ( 1 3 4 ) | ( 2 5 ) }
L:1/8
M:3/4
K:Eb
V:1 treble nm="Grand Piano"
V:3 treble 
V:4 treble 
V:2 bass 
V:5 bass 
V:1
 z2 z2[Q:1/4=100] [GB]2 | [GB]3 [GB] [_G=A]>[=GB] | [Ac]2 [GB]2 [Ge]2 | [Ae]3 [Ad] [Ec]>[Ee] | %4
[M:2/4] [EB]4 |[M:1/4] [GB]2 |[M:3/4] [FA]3 [Ac] [GB]>[FA] | [EG]2 [GB]2 [Ge]2 | d3 B c>=A | %9
[M:2/4] [DB]4 |[M:4/4] z2 [Ge]6 | z2 [Bd]2 [Ac]4 | z2 [Ad]6 | z2 [GB]6 | z2 [Ge]6 | %15
 z2 [Bd]2 [Ac]4 | z2 B6 |[M:7/8] z2 E- E- E3- | E2 z z z z2 |] %19
V:2
 z2 z2 [E,E]2 | [E,E]3 [E,E] [E,C]>[E,B,] | [E,E]2 [E,E]2 [E,B,]2 | [A,C]3 [A,B,] [A,,A,]>[C,A,] | %4
[M:2/4] [E,G,]4 |[M:1/4] [E,B,]2 |[M:3/4] [B,,B,]3 [B,,B,] [B,,B,]>[B,,B,] | %7
 [E,B,]2 [E,E]2 [E,B,]2 | [F,B,F]3 [F,B,D] [F,=A,E]>[F,CE] |[M:2/4] [B,,B,]4 | %10
[M:4/4] [B,A]2 [E,B,]>E, E,>E, E,>E, | F>E A,>A, A,>[K:bass]A, A,>A, | %12
 [A,,CA]2 [B,,B,]>B,, B,,>B,, z z/[K:treble] A/ | D>A[K:bass] E,>E, E,>E, E,2 | %14
 E,2 [E,B,]>E, E,>E, E,>E, | F>E A,>A, A,>A, A,>A, | z2 G6[K:bass] | %17
[M:7/8] B,,>B,, z z/ G,<A,A,/G,- | G,2 z z z z2 |] %19
V:3
 x6 | x6 | x6 | x6 |[M:2/4] x4 |[M:1/4] x2 |[M:3/4] x6 | x6 | x6 |[M:2/4] x4 | %10
[M:4/4] B2 z z/ B,/ B,>B, B,>[B,GB] | A>G z z/ E/ E>E E>E | e2 z z/ B,/ B,>B, z z/ c/ | %13
 F>c B,>E E>E E2 | [EGB]2 z z/ B,/ B,>B, B,>[B,GB] | A>G z z/ E/ E>E E>E | %16
 e2 z z/ E/ E>E E>[B,FA] |[M:7/8] [A,DF]>[B,DG]G,>B,C>CB,- | B,2 z z z z2 |] %19
V:4
 x6 | x6 | x6 | x6 |[M:2/4] x4 |[M:1/4] x2 |[M:3/4] x6 | x6 | x6 |[M:2/4] x4 |[M:4/4] x8 | x8 | %12
 z4 z2 B,2 | x8 | x8 | x8 | x8 |[M:7/8] x7 | x7 |] %19
V:5
 x6 | x6 | x6 | x6 |[M:2/4] x4 |[M:1/4] x2 |[M:3/4] x6 | x6 | x6 |[M:2/4] x4 |[M:4/4] x8 | %11
 x11/2[K:bass] x5/2 | z4 z2 B,,2[K:treble] | x2[K:bass] x6 | x8 | x8 | %16
 [A,CA]2 [B,E]>[K:bass]B, B,>B, B,,>B,, |[M:7/8] z2 E,- E,- E,3- | E,2 z z z z2 |] %19

